X:220
T:A Hundred Years Ago (b)
M:C
L:1/8
Q:1/4=3D110
K:Ab
E2|\
E2F2 G2AA|B2G2 A4|B4 E4|B6 d2|
d2d2 c2BA|B2(BA) F2E2|A2A2 c3B|A6||
